public/assets/adobe-logo.svg

<svg width="187" height="33" viewBox="0 0 187 33" fill="none" xmlns="http://www.w3.org/2000/svg">
<path d="M25.6766 0H5.52342C2.47292 0 0 2.56451 0 5.72799V25.472C0 28.6355 2.47292 31.2 5.52342 31.2H25.6766C28.7271 31.2 31.2 28.6355 31.2 25.472V5.72799C31.2 2.56451 28.7271 0 25.6766 0Z" fill="white"/>
<path d="M24.1896 23.689H20.556C20.3981 23.692 20.243 23.646 20.1103 23.5567C19.9775 23.4674 19.8733 23.3389 19.8107 23.1876L15.866 13.5616C15.8557 13.5241 15.8341 13.4911 15.8044 13.4674C15.7747 13.4438 15.7385 13.4307 15.7012 13.4302C15.6638 13.4297 15.6273 13.4418 15.5971 13.4646C15.5668 13.4874 15.5444 13.5199 15.5331 13.557L13.0748 19.6688C13.0615 19.7019 13.0562 19.7379 13.0594 19.7736C13.0626 19.8093 13.0742 19.8437 13.0932 19.8735C13.1122 19.9034 13.138 19.9279 13.1683 19.9449C13.1986 19.9619 13.2325 19.9707 13.2668 19.9707H15.9691C16.0509 19.9707 16.131 19.9959 16.1992 20.0431C16.2674 20.0902 16.3209 20.1574 16.3528 20.236L17.5359 22.9837C17.5672 23.0608 17.5798 23.1448 17.5724 23.2282C17.5651 23.3116 17.5381 23.3918 17.4938 23.4617C17.4495 23.5315 17.3894 23.5889 17.3187 23.6285C17.248 23.6682 17.169 23.689 17.0887 23.689H7.25136C7.17737 23.6886 7.10463 23.669 7.03964 23.6321C6.97465 23.5952 6.91942 23.5421 6.87887 23.4775C6.83833 23.4129 6.81372 23.3388 6.80726 23.2619C6.80079 23.185 6.81266 23.1076 6.84182 23.0366L13.0991 7.48492C13.1631 7.32032 13.2731 7.17967 13.4148 7.08133C13.5566 6.98299 13.7234 6.93153 13.8936 6.93367H17.5026C17.6729 6.93132 17.8398 6.98269 17.9816 7.08106C18.1233 7.17942 18.2333 7.32019 18.2971 7.48492L24.5978 23.0366C24.6269 23.1074 24.6388 23.1847 24.6324 23.2615C24.6261 23.3384 24.6016 23.4124 24.5612 23.4769C24.5208 23.5415 24.4657 23.5946 24.4009 23.6316C24.3361 23.6686 24.2635 23.6884 24.1896 23.689Z" fill="#EB1000"/>
<path d="M48.2165 19.4774H44.3602L43.6489 21.7238C43.6114 21.8735 43.5365 21.9297 43.3868 21.9297H40.6724C40.4852 21.9297 40.4477 21.8361 40.4852 21.6863L44.042 11.2967C44.1169 11.0721 44.2105 10.7913 44.2479 9.93017C44.2479 9.83657 44.3041 9.78041 44.3977 9.78041H48.1042C48.1978 9.78041 48.2353 9.79913 48.2727 9.89273L52.4098 21.705C52.466 21.8548 52.4285 21.9297 52.2975 21.9297H49.2087C49.0964 21.9297 49.0402 21.8922 48.9841 21.7799L48.2165 19.4774ZM45.0716 16.7255H47.4677C47.1121 15.4713 46.6253 13.8614 46.2509 12.4761H46.2322C45.9514 13.8052 45.4085 15.5462 45.0716 16.7255ZM57.9479 22.1169C55.065 22.1169 52.9309 20.4508 52.9309 17.2871C52.9309 14.6663 54.7842 12.3638 58.4346 12.3638C58.7154 12.3638 58.8277 12.3638 58.9587 12.3638V8.91929C58.9587 8.82569 59.0149 8.78825 59.1085 8.78825H62.1037C62.1973 8.78825 62.216 8.82569 62.216 8.90057V19.3838C62.216 19.9266 62.2535 20.6193 62.2909 21.0498C62.3096 21.1622 62.2909 21.1996 62.1599 21.2558C60.8495 21.8174 59.2957 22.1169 57.9479 22.1169ZM58.9587 19.5335V14.9284C58.8464 14.9097 58.6592 14.8535 58.3971 14.8535C57.3488 14.8535 56.3005 15.5274 56.3005 17.1748C56.3005 18.7847 57.1055 19.6084 58.341 19.6084C58.6031 19.6084 58.809 19.571 58.9587 19.5335ZM68.7691 12.3638C72.0076 12.3638 73.5801 14.7225 73.5801 17.1748C73.5801 20.2636 71.5583 22.1169 68.6942 22.1169C65.3059 22.1169 63.8083 19.7582 63.8083 17.2497C63.8083 14.4417 65.7551 12.3638 68.7691 12.3638ZM68.6755 14.8722C67.7582 14.8722 67.1217 15.6772 67.1217 17.1935C67.1217 18.7098 67.7582 19.6084 68.7503 19.6084C69.6863 19.6084 70.2854 18.8034 70.2854 17.2497C70.2854 15.827 69.7612 14.8722 68.6755 14.8722ZM75.3038 8.78825H78.2054C78.3926 8.78825 78.4113 8.82569 78.4113 8.95673V12.4948C78.9168 12.3825 79.3099 12.3638 79.9089 12.3638C82.7169 12.3638 84.4392 14.3855 84.4392 16.8753C84.4392 20.0202 81.8558 22.1169 78.6921 22.1169C77.2132 22.1169 76.2024 21.911 75.2664 21.5927C75.2102 21.574 75.154 21.4804 75.154 21.3868V8.93801C75.154 8.84441 75.1915 8.78825 75.3038 8.78825ZM81.0883 17.1561C81.0883 15.359 80.1336 14.891 79.104 14.891C78.898 14.891 78.6172 14.9097 78.4113 14.9471V19.5522C78.5985 19.5897 78.7857 19.6084 79.0104 19.6084C80.1523 19.6084 81.0883 18.7847 81.0883 17.1561ZM92.3387 18.0921H88.9317C89.0065 18.8034 89.6992 19.4961 91.3091 19.4961C92.2077 19.4961 92.9003 19.365 93.6304 19.103C93.6865 19.0842 93.7427 19.0842 93.7427 19.2153V21.2745C93.7427 21.443 93.7053 21.4991 93.6117 21.5553C92.788 21.911 91.8894 22.0794 90.579 22.0794C86.9286 22.0794 85.5995 19.6646 85.5995 17.3433C85.5995 14.7786 87.172 12.3638 90.3169 12.3638C93.3496 12.3638 94.5289 14.554 94.5289 16.5758C94.5289 17.0812 94.4915 17.5679 94.4353 17.8674C94.4166 17.9423 94.3605 17.9985 94.2669 18.0172C94.0235 18.0546 93.387 18.0921 92.3387 18.0921ZM88.8942 16.0142H90.6913C91.1032 16.0142 91.4027 15.9954 91.4589 15.9767C91.4776 15.3215 91.0657 14.685 90.2421 14.685C89.3248 14.685 88.9129 15.3777 88.8942 16.0142ZM100.48 21.7612V9.93017C100.48 9.83657 100.536 9.78041 100.629 9.78041H104.898C109.11 9.78041 110.027 12.1204 110.027 13.8426C110.064 16.6881 107.724 18.1295 104.542 18.1295H103.737V21.7425C103.737 21.8735 103.681 21.9297 103.569 21.9297H100.648C100.536 21.9297 100.48 21.8735 100.48 21.7612ZM103.737 12.4574V15.4526H104.898C106.264 15.4526 106.826 14.8722 106.826 13.955C106.826 13.019 106.302 12.4574 104.973 12.4574H103.737ZM115.888 19.702V17.9985C115.719 17.9798 115.551 17.9423 115.064 17.9423C114.184 17.9423 113.679 18.3167 113.679 18.8596C113.679 19.4774 114.128 19.833 115.027 19.833C115.364 19.833 115.701 19.7769 115.888 19.702ZM119.033 16.2201V19.4961C119.033 20.0577 119.051 20.5257 119.108 21.0686C119.108 21.0873 119.108 21.1247 119.051 21.1434C117.573 21.7612 116.056 22.1169 114.502 22.1169C112.312 22.1169 110.496 21.237 110.496 18.9532C110.496 16.9689 112.2 15.8831 114.858 15.8831C115.27 15.8831 115.701 15.9018 115.888 15.9018V15.7895C115.888 15.5274 115.607 14.9097 114.24 14.9097C113.361 14.9097 112.406 15.153 111.657 15.4713C111.563 15.5087 111.47 15.4713 111.47 15.359V13.2249C111.47 13.1126 111.489 13.0377 111.62 12.9815C112.574 12.5697 113.847 12.3638 114.914 12.3638C117.704 12.3638 119.033 13.9737 119.033 16.2201ZM121.077 21.7238V14.7412C121.077 14.1047 121.039 13.1874 121.002 12.7194C120.983 12.6071 121.02 12.5322 121.133 12.5322H123.604C123.81 12.5322 123.866 12.5884 123.922 12.7007C123.997 12.8692 124.034 13.019 124.072 13.2062C124.858 12.6258 125.719 12.3638 126.655 12.3638C128.153 12.3638 129.912 13.2249 129.912 16.2201V21.7238C129.912 21.8548 129.856 21.9297 129.706 21.9297H126.861C126.711 21.9297 126.636 21.8735 126.636 21.7238V16.2762C126.636 15.4526 126.243 14.9846 125.494 14.9846C125.064 14.9846 124.689 15.1343 124.334 15.4151V21.7425C124.334 21.8735 124.278 21.9297 124.147 21.9297H121.264C121.133 21.9297 121.077 21.8735 121.077 21.7238ZM136.428 12.3638C139.667 12.3638 141.239 14.7225 141.239 17.1748C141.239 20.2636 139.217 22.1169 136.353 22.1169C132.965 22.1169 131.467 19.7582 131.467 17.2497C131.467 14.4417 133.414 12.3638 136.428 12.3638ZM136.334 14.8722C135.417 14.8722 134.781 15.6772 134.781 17.1935C134.781 18.7098 135.417 19.6084 136.409 19.6084C137.345 19.6084 137.944 18.8034 137.944 17.2497C137.944 15.827 137.42 14.8722 136.334 14.8722ZM142.869 12.5322H145.415C145.565 12.5322 145.621 12.5884 145.677 12.7382C145.789 12.9815 145.883 13.5057 145.92 13.9362C146.594 13.019 147.755 12.4012 148.953 12.3638C149.084 12.3638 149.122 12.4012 149.122 12.5322V15.4713C149.122 15.6023 149.084 15.6585 148.934 15.6585C147.867 15.621 146.651 15.9393 146.07 16.5383V21.7425C146.07 21.8922 146.033 21.9297 145.883 21.9297H143.019C142.869 21.9297 142.813 21.8735 142.813 21.7238V15.3402C142.813 14.5166 142.776 13.4121 142.719 12.6633C142.719 12.5697 142.757 12.5322 142.869 12.5322ZM154.973 19.702V17.9985C154.805 17.9798 154.636 17.9423 154.149 17.9423C153.27 17.9423 152.764 18.3167 152.764 18.8596C152.764 19.4774 153.213 19.833 154.112 19.833C154.449 19.833 154.786 19.7769 154.973 19.702ZM158.118 16.2201V19.4961C158.118 20.0577 158.137 20.5257 158.193 21.0686C158.193 21.0873 158.193 21.1247 158.137 21.1434C156.658 21.7612 155.142 22.1169 153.588 22.1169C151.398 22.1169 149.582 21.237 149.582 18.9532C149.582 16.9689 151.285 15.8831 153.943 15.8831C154.355 15.8831 154.786 15.9018 154.973 15.9018V15.7895C154.973 15.5274 154.692 14.9097 153.326 14.9097C152.446 14.9097 151.491 15.153 150.742 15.4713C150.649 15.5087 150.555 15.4713 150.555 15.359V13.2249C150.555 13.1126 150.574 13.0377 150.705 12.9815C151.66 12.5697 152.933 12.3638 154 12.3638C156.789 12.3638 158.118 13.9737 158.118 16.2201ZM163.232 21.9297H160.349C160.218 21.9297 160.162 21.8735 160.162 21.7238V14.5914C160.162 13.955 160.106 13.0751 160.087 12.7382C160.068 12.5884 160.106 12.5322 160.255 12.5322H162.745C162.876 12.5322 162.932 12.5697 162.989 12.682C163.063 12.7943 163.101 13.0564 163.138 13.2062C163.943 12.5884 164.786 12.3638 165.778 12.3638C166.882 12.3638 167.687 12.7943 168.174 13.4495C169.073 12.7194 170.046 12.3638 171.225 12.3638C172.985 12.3638 174.539 13.3559 174.539 16.1452V21.7238C174.539 21.8735 174.464 21.9297 174.333 21.9297H171.469C171.356 21.9297 171.282 21.8548 171.282 21.705V16.3324C171.282 15.5462 171.019 14.9658 170.14 14.9658C169.746 14.9658 169.297 15.153 168.942 15.5087C168.979 15.6772 168.979 16.0329 168.979 16.3324V21.7238C168.979 21.8361 168.96 21.9297 168.81 21.9297H165.946C165.797 21.9297 165.722 21.8922 165.722 21.7238V16.3698C165.722 15.3777 165.254 14.9846 164.561 14.9846C164.187 14.9846 163.775 15.1156 163.419 15.4338V21.7425C163.419 21.8548 163.382 21.9297 163.232 21.9297ZM181.408 19.702V17.9985C181.239 17.9798 181.071 17.9423 180.584 17.9423C179.704 17.9423 179.199 18.3167 179.199 18.8596C179.199 19.4774 179.648 19.833 180.547 19.833C180.884 19.833 181.221 19.7769 181.408 19.702ZM184.553 16.2201V19.4961C184.553 20.0577 184.571 20.5257 184.628 21.0686C184.628 21.0873 184.628 21.1247 184.571 21.1434C183.093 21.7612 181.576 22.1169 180.022 22.1169C177.832 22.1169 176.016 21.237 176.016 18.9532C176.016 16.9689 177.72 15.8831 180.378 15.8831C180.79 15.8831 181.221 15.9018 181.408 15.9018V15.7895C181.408 15.5274 181.127 14.9097 179.76 14.9097C178.881 14.9097 177.926 15.153 177.177 15.4713C177.083 15.5087 176.99 15.4713 176.99 15.359V13.2249C176.99 13.1126 177.009 13.0377 177.14 12.9815C178.094 12.5697 179.367 12.3638 180.434 12.3638C183.224 12.3638 184.553 13.9737 184.553 16.2201Z" fill="white"/>
</svg>

<?xml version="1.0" encoding="UTF-8"?>
<svg id="Layer_1" xmlns="http://www.w3.org/2000/svg" version="1.1" viewBox="0 0 31.2 31.2">
  <!-- Generator: Adobe Illustrator 30.1.0, SVG Export Plug-In . SVG Version: 2.1.1 Build 136)  -->
  <defs>
    <style>
      .st0 {
        fill: #eb1000;
      }

      .st1 {
        fill: #fff;
      }
    </style>
  </defs>
  <path class="st1" d="M25.68,0H5.52C2.47,0,0,2.56,0,5.73v19.74c0,3.16,2.47,5.73,5.52,5.73h20.15c3.05,0,5.52-2.56,5.52-5.73V5.73c0-3.16-2.47-5.73-5.52-5.73h.01Z"/>
  <path class="st0" d="M24.19,23.69h-3.63c-.16,0-.31-.04-.45-.13-.13-.09-.24-.22-.3-.37l-3.94-9.63s-.03-.07-.06-.09c-.03-.02-.07-.04-.1-.04-.04,0-.07.01-.1.03-.03.02-.05.06-.06.09l-2.46,6.11s-.02.07-.02.1c0,.04.01.07.03.1.02.03.04.05.08.07s.06.03.1.03h2.7c.08,0,.16.03.23.07.07.05.12.11.15.19l1.18,2.75c.03.08.04.16.04.24s-.03.16-.08.23c-.04.07-.1.13-.18.17-.07.04-.15.06-.23.06H7.25c-.07,0-.15-.02-.21-.06-.06-.04-.12-.09-.16-.15s-.07-.14-.07-.22,0-.15.03-.23l6.26-15.55c.06-.16.17-.31.32-.4.14-.1.31-.15.48-.15h3.61c.17,0,.34.05.48.15s.25.24.32.4l6.3,15.55c.03.07.04.15.03.22,0,.08-.03.15-.07.22-.04.06-.1.12-.16.15-.06.04-.14.06-.21.06v.03Z"/>
</svg>
